X: 121001
P: Country Dance.
M: 2/4
L: 1/8
K: A
|: (af) !segno!|\
eccA dBBG | Aaga fgaf |\
eccA dBBG | A2c2A2 H:|\
z2 |\
vB2e2 c2e2 | B2e2 c2e2 |\
vBe^de cede | Be^de cede |
vc2ce e2d2 | uB2Bd d2c2 |\
c2ce (fg)af | edcB B2A2 |\
c2cd (fe)dc | B2Bc (ed)cB |\
c2ce (fg)af | edcB Aa"_D.C."gf |]


